packages/admin/admin-icons/icons/more-horizontal.svg

<svg xmlns="http://www.w3.org/2000/svg" width="16" height="16" viewBox="0 0 16 16"><path fill="#0F0F0F" fill-rule="evenodd" d="M4.5,9 C4.5,9.27614237 4.27614237,9.5 4,9.5 L2,9.5 C1.72385763,9.5 1.5,9.27614237 1.5,9 L1.5,7 C1.5,6.72385763 1.72385763,6.5 2,6.5 L4,6.5 C4.27614237,6.5 4.5,6.72385763 4.5,7 L4.5,9 Z M9.5,9 C9.5,9.27614237 9.27614237,9.5 9,9.5 L7,9.5 C6.72385763,9.5 6.5,9.27614237 6.5,9 L6.5,7 C6.5,6.72385763 6.72385763,6.5 7,6.5 L9,6.5 C9.27614237,6.5 9.5,6.72385763 9.5,7 L9.5,9 Z M14.5,9 C14.5,9.27614237 14.2761424,9.5 14,9.5 L12,9.5 C11.7238576,9.5 11.5,9.27614237 11.5,9 L11.5,7 C11.5,6.72385763 11.7238576,6.5 12,6.5 L14,6.5 C14.2761424,6.5 14.5,6.72385763 14.5,7 L14.5,9 Z"/></svg>

<svg width="16" height="16" fill="none" viewBox="0 0 16 16">
  <path fill="#242424" d="M2 9.501a.5.5 0 0 1-.5-.5v-2a.5.5 0 0 1 .5-.5h2a.5.5 0 0 1 .5.5v2a.5.5 0 0 1-.5.5H2Zm5 0a.5.5 0 0 1-.5-.5v-2a.5.5 0 0 1 .5-.5h2a.5.5 0 0 1 .5.5v2a.5.5 0 0 1-.5.5H7Zm4.5-.5a.5.5 0 0 0 .5.5h2a.5.5 0 0 0 .5-.5v-2a.5.5 0 0 0-.5-.5h-2a.5.5 0 0 0-.5.5v2Z"/>
</svg>
